images/advantages-3.svg

<svg width="44" height="36" viewBox="0 0 44 36" fill="none" xmlns="http://www.w3.org/2000/svg">
<path d="M42.5311 8.48944C42.1519 8.14574 41.6931 7.92507 41.2063 7.85221C40.7194 7.77935 40.2237 7.85717 39.7748 8.07694L30.3061 12.6969C30.2644 12.722 30.2185 12.7376 30.1712 12.7428C30.1239 12.7481 30.0761 12.7428 30.0307 12.7275C29.9853 12.7121 29.9431 12.6869 29.9067 12.6533C29.8703 12.6197 29.8403 12.5785 29.8186 12.5319L24.2873 1.60069C24.063 1.14882 23.7323 0.77173 23.3298 0.509017C22.9273 0.246303 22.4679 0.107666 21.9998 0.107666C21.5318 0.107666 21.0724 0.246303 20.6699 0.509017C20.2674 0.77173 19.9366 1.14882 19.7123 1.60069L14.1811 12.5319C14.1594 12.5785 14.1294 12.6197 14.093 12.6533C14.0566 12.6869 14.0144 12.7121 13.969 12.7275C13.9235 12.7428 13.8758 12.7481 13.8285 12.7428C13.7812 12.7376 13.7353 12.722 13.6936 12.6969L4.22483 8.07694C3.7775 7.85378 3.28222 7.77315 2.79531 7.84423C2.30839 7.91531 1.84937 8.13524 1.47043 8.47901C1.09149 8.82279 0.807846 9.27662 0.651734 9.78891C0.495622 10.3012 0.47331 10.8514 0.587334 11.3769L5.36858 33.7138C5.44956 34.0913 5.59932 34.4468 5.8088 34.7588C6.01829 35.0707 6.28314 35.3327 6.58733 35.5288C6.98807 35.7986 7.44876 35.9413 7.91858 35.9413C8.15901 35.9389 8.39827 35.9042 8.63108 35.8382C17.3723 33.1781 26.6052 33.171 35.3498 35.8176C35.6909 35.9259 36.0485 35.9569 36.4008 35.9089C36.7531 35.8608 37.093 35.7347 37.3997 35.538C37.7064 35.3413 37.9737 35.0783 38.1854 34.7647C38.397 34.4512 38.5486 34.0937 38.6311 33.7138L43.3936 11.3769C43.5126 10.8552 43.4947 10.307 43.342 9.79595C43.1894 9.2849 42.9082 8.8319 42.5311 8.48944ZM41.2186 10.7994L36.4373 33.1363C36.4117 33.2448 36.3519 33.3398 36.2686 33.4044C36.1755 33.4543 36.07 33.4688 35.9686 33.4457C26.8273 30.668 17.1724 30.668 8.03108 33.4457C7.98181 33.4611 7.93019 33.4652 7.87942 33.4577C7.82864 33.4503 7.77979 33.4315 7.73587 33.4025C7.69195 33.3736 7.65389 33.335 7.62404 33.2892C7.5942 33.2434 7.5732 33.1914 7.56233 33.1363L2.78108 10.7994C2.77018 10.7378 2.7716 10.6742 2.78525 10.6132C2.7989 10.5522 2.82445 10.4952 2.86013 10.4462C2.8958 10.3971 2.94075 10.3572 2.99186 10.3292C3.04296 10.3011 3.099 10.2857 3.15608 10.2838L3.30608 10.3251L12.7936 14.9657C13.3919 15.2621 14.0698 15.2993 14.692 15.0699C15.3142 14.8405 15.8348 14.3613 16.1498 13.7282L21.6811 2.79694C21.7106 2.73179 21.7561 2.67698 21.8124 2.63867C21.8687 2.60037 21.9336 2.58008 21.9998 2.58008C22.066 2.58008 22.1309 2.60037 22.1872 2.63867C22.2435 2.67698 22.289 2.73179 22.3186 2.79694L27.8498 13.7282C28.1649 14.3613 28.6855 14.8405 29.3077 15.0699C29.9298 15.2993 30.6078 15.2621 31.2061 14.9657L40.6936 10.3251C40.7579 10.2937 40.8289 10.2829 40.8985 10.2938C40.9682 10.3048 41.0336 10.3371 41.0873 10.3869C41.1421 10.4353 41.1835 10.4996 41.2067 10.5725C41.2299 10.6454 41.234 10.7241 41.2186 10.7994ZM29.1248 26.4744C29.0929 26.779 28.9609 27.0602 28.7538 27.2653C28.5466 27.4704 28.2785 27.5852 27.9998 27.5882H27.8873C23.9722 27.1551 20.0275 27.1551 16.1123 27.5882C15.8166 27.6229 15.5204 27.5274 15.2885 27.3226C15.0566 27.1177 14.9079 26.8202 14.8748 26.4951C14.8485 26.1676 14.9397 25.8419 15.1289 25.5875C15.3181 25.3331 15.5904 25.1703 15.8873 25.1338C19.9509 24.6594 24.0487 24.6594 28.1123 25.1338C28.4058 25.1703 28.6751 25.3302 28.8638 25.58C29.0525 25.8299 29.1461 26.1504 29.1248 26.4744Z" fill="#2B7FFF"/>
</svg>

<svg xmlns="http://www.w3.org/2000/svg" fill="none" viewBox="0 0 44 36">
  <path fill="#2B7FFF" d="M42.531 8.49a2.532 2.532 0 0 0-1.325-.638 2.428 2.428 0 0 0-1.431.225l-9.469 4.62a.332.332 0 0 1-.4-.044.388.388 0 0 1-.087-.121L24.287 1.6A2.765 2.765 0 0 0 23.33.509 2.43 2.43 0 0 0 22 .108a2.43 2.43 0 0 0-1.33.401 2.77 2.77 0 0 0-.958 1.092l-5.53 10.93a.388.388 0 0 1-.089.122.348.348 0 0 1-.124.074.332.332 0 0 1-.275-.03l-9.47-4.62a2.412 2.412 0 0 0-1.429-.233 2.513 2.513 0 0 0-1.325.635 2.91 2.91 0 0 0-.818 1.31 3.164 3.164 0 0 0-.065 1.588L5.37 33.714c.08.377.23.733.44 1.045.21.312.474.574.778.77.401.27.862.412 1.332.412.24-.002.48-.037.712-.103a45.837 45.837 0 0 1 26.719-.02c.34.108.698.139 1.05.09a2.449 2.449 0 0 0 1-.37 2.73 2.73 0 0 0 .785-.773c.212-.314.364-.671.446-1.051l4.763-22.337a3.118 3.118 0 0 0-.052-1.581 2.87 2.87 0 0 0-.81-1.307ZM41.22 10.8l-4.782 22.336a.477.477 0 0 1-.168.268.43.43 0 0 1-.3.042 47.873 47.873 0 0 0-27.938 0 .34.34 0 0 1-.295-.043.39.39 0 0 1-.112-.114.434.434 0 0 1-.062-.153L2.782 10.8a.475.475 0 0 1 .078-.353.402.402 0 0 1 .132-.117.365.365 0 0 1 .164-.045l.15.041 9.488 4.64a2.388 2.388 0 0 0 1.898.105 2.689 2.689 0 0 0 1.458-1.342l5.53-10.932a.38.38 0 0 1 .131-.158.333.333 0 0 1 .375 0 .381.381 0 0 1 .132.158l5.53 10.931c.316.633.837 1.113 1.459 1.342.622.23 1.3.192 1.898-.104l9.488-4.64a.344.344 0 0 1 .393.06.415.415 0 0 1 .12.187.452.452 0 0 1 .012.226ZM29.125 26.473a1.304 1.304 0 0 1-.371.791 1.09 1.09 0 0 1-.754.323h-.113a53.518 53.518 0 0 0-11.775 0 1.055 1.055 0 0 1-.823-.265 1.275 1.275 0 0 1-.414-.828 1.346 1.346 0 0 1 .254-.908 1.12 1.12 0 0 1 .758-.453 52.683 52.683 0 0 1 12.225 0c.294.036.563.196.752.446.188.25.282.57.26.894Z"/>
</svg>
